X:1
T:Title
%%score { ( 1 3 ) | ( 2 4 ) }
L:1/8
M:4/4
K:C
V:1 treble nm="Grand Piano"
V:3 treble 
V:2 bass 
V:4 bass 
V:1
 z4 z2 z[Q:1/4=96] [EG] | [Ec]3 [EG] [FA][EG][DF][CE] | [B,G]2 [DF]2 [B,D]3 [B,D] | %3
 [B,D][CE] [EG]2 [DF]3 [B,D] | [CE][DF] [FA]2 [EG]3 [EG] | [Ec]3 [EG] [FA][EG][DF][CE] | z4 z2 B2 | %7
 A3 G ^FEFG | [CDB]2 [C^FA]2 [B,G]2 [B,G]2 | [Ge]3 [Fd] [Ec]E [G,CE]2 | [CEG]2 [EGc]2 B2 G2 | %11
 d3 c BD D2 | G2 B2 [Ec]2 [EG]2 | [Ge]3 [Fd] [Ec][DB][Ec]e | d2 c2 B2 A2 | G3 c cBcd | %16
[M:7/8] z2 d2 z z2 |[M:1/4] c2 |[M:4/4] c4 z4 | [FB]2 z C d2 d2 | d4 z2 d2 |[M:3/4] c2 d2 [Ge]2 | %22
[M:1/4] [Gc]2 |[M:4/4] [FA][GB][Ac][^GB] [Ac]2 [FA]2 | [EG]^F .[CEG]2 [Ge]2 [Gc]2 | %25
 dc[GB][FA] [EG]2 [Gc]>d |[M:7/8] z2 B2 z z2 |] %27
V:2
 z4 z2 z [C,C] | [C,G,]3 [C,C] [C,C]2 [C,G,]2 | [G,,G,]2 [G,,G,]2 [G,,G,]3 [G,,G,] | %3
 [G,,G,]2 [G,,G,]2 [G,,G,]3 [G,,G,] | [C,G,]2 [C,C]2 [C,C]3 [C,C] | [C,G,]3 [C,C] [C,C]2 [C,G,]2 | %6
 [G,,G,]2 [G,,G,]2 [G,,G,]2 [G,D]2 | [D,CD]3 [D,B,D] A,G,[D,D]-[D,B,D] | D,2 D,2 G,2 G,2 | %9
 [C,C]3 [C,G,] z C C,2 | C,2 C,2[K:treble] [G,DG]2 [G,B,]2 | [G,B,F]3 [G,CE] DB, [G,B,]2 | %12
 [G,B,D]2 [G,DF]2[K:bass] [C,C]2 [C,C]2 | z4 z2 .G,2 | [F,A,F]2 [F,A,F]2 [F,CG]2 [F,CF]2 | %15
 [G,CE]3 [G,EG] EDEB, |[M:7/8] z2 G z[K:bass] z z2 |[M:1/4] z2 | %18
[M:4/4] z z/ [F,A,]/ [F,A,]>[F,A,F] [C,G,]2 [C,G,]2 | [D,G,]2 .[C,G,]2 [G,,B,G]2 B,2 | %20
 z G,G,[K:treble][G,B,G] [G,B,G]2 .[G,B,G]2 |[M:3/4] [A,CE]2 [G,B,G]2[K:bass] [C,C]2 | %22
[M:1/4] [E,C]2 |[M:4/4] [F,C]2 [F,C]2 [F,C]2 [F,C]2 | z _E z[K:treble] c[K:bass] [C,C]2 [E,C]2 | %25
 [F,A,F]2 [F,C]2 [C,C]2 [E,C]>[F,A,F] |[M:7/8] [G,E]2 [G,,G,]2 [C,G,]3 |] %27
V:3
 x8 | x8 | x8 | x8 | x8 | x8 | [B,G]2 [DF]2 [B,D]2 z B, | x8 | x8 | x8 | x8 | x8 | x8 | x8 | x8 | %15
 x8 |[M:7/8] e2 z F [Ec]3 |[M:1/4] x2 |[M:4/4] z z/ F/ F>c [Ec]2 [Ec]2 | z2 [Ec]2 z4 | %20
 z GGd d2 z F |[M:3/4] x6 |[M:1/4] x2 |[M:4/4] x8 | x8 | x8 |[M:7/8] c2 D/EF/ [Ec]3 |] %27
V:4
 x8 | x8 | x8 | x8 | x8 | x8 | x8 | z4 [D,D]2 .A,2 | x8 | z4 [C,G,]2 z2 | x4[K:treble] x4 | %11
 z4 G,2 z2 | x4[K:bass] x4 | [C,C]3 [C,G,] [C,G,]2 C,-[C,CG] | x8 | z4 [G,G]2 [G,G]2 | %16
[M:7/8] [G,CG]2 [G,B,]2[K:bass] [C,C]3 |[M:1/4] x2 |[M:4/4] x8 | x8 | B,4[K:treble] z4 | %21
[M:3/4] x4[K:bass] x2 |[M:1/4] x2 |[M:4/4] x8 | [C,C]2 C,2[K:treble][K:bass] z4 | x8 |[M:7/8] x7 |] %27

